!!!OTL: Shengsheng xiangzhe Beijing chang
!!!ARE: Asia, China,ÿGuangdong Heyuan
!! II, 351, 1)
!!!SCT: C1882
!!!YEM: Copyright 1995, estate of Helmut Schaffrath.
**kern
*ICvox
*Ivox
!! Mixed meters:  2/4; 3/4
*M3/4
*k[b-e-]
*B-:
{8ff
8ff
8ff
8ff
=1
16fff
16ddd
16ccc
16ddd
8ccc
4ccc}
{16ddd
16fff
=2
*M2/4
8bb-
16bb-
16gg
8bb-
16bb-
16gg
=3
*M3/4
16bb-
16gg
16ff
16gg
8ff
4.ff}
=4
*M2/4
{8ddd
4ddd
16ccc
16ddd
=5
8bb-
16bb-
16gg
8bb-
8ff
=6
16gg
16bb-
4.gg}
=7
{8dd
8dd
8bb-
16bb-
16gg
=8
16bb-
16gg
16ff
16gg
8ff
4.ff}
==
!!!AGN: Shange
!!!AMT: irregular
!!!AIN: vox
!!!EED: Helmut Schaffrath
!!!EEV: 1.0
*-
